static/img/menus/ico-cam-face.svg

<svg width="20" height="20" viewBox="0 0 20 20" fill="none" xmlns="http://www.w3.org/2000/svg">
<path d="M5.1 1.5H4.5C2.84315 1.5 1.5 2.84315 1.5 4.5V5.1M12.9 1.5H13.5C15.1569 1.5 16.5 2.84315 16.5 4.5V5.1M5.1 17.5H4.5C2.84315 17.5 1.5 16.1569 1.5 14.5V13.9" stroke="currentColor" stroke-linecap="round"/>
<path d="M12.5 6V7.5M8.5 7V10H9.5M4.5 6V7.5M6.42857 12.5C7.679 12.9863 8.92944 13.1179 10.1799 12.8947" stroke="currentColor" stroke-linecap="round" stroke-linejoin="round"/>
<mask id="path-3-inside-1_1096_75549" fill="white">
<path fill-rule="evenodd" clip-rule="evenodd" d="M14.389 8.8999C14.8966 8.8999 15.3184 9.28738 15.3548 9.7876L15.4173 10.4399C15.7778 10.5802 16.1113 10.7726 16.4095 11.0073L17.014 10.7349C17.4707 10.5156 18.0218 10.6822 18.2757 11.1167L18.6644 11.7827C18.9183 12.2172 18.789 12.7721 18.3685 13.0532L17.8284 13.4321C17.8563 13.6173 17.8714 13.8067 17.8714 13.9995C17.8714 14.1909 17.8559 14.3791 17.8284 14.563L18.3841 14.9438C18.7973 15.2274 18.9217 15.7769 18.6702 16.2075L18.2699 16.8921C18.0181 17.3227 17.4742 17.4908 17.0189 17.2788L16.4075 16.9937C16.1108 17.2269 15.7787 17.4173 15.4202 17.5571L15.3646 18.2231C15.3228 18.7187 14.903 19.1 14.3997 19.1001H13.5999C13.0966 19.1001 12.6769 18.7187 12.6351 18.2231L12.5784 17.5571C12.2201 17.4172 11.8878 17.227 11.5911 16.9937L10.9798 17.2788C10.5246 17.4906 9.98149 17.3226 9.72982 16.8921L9.32942 16.2075C9.0779 15.7769 9.20217 15.2274 9.61556 14.9438L10.1702 14.563C10.1428 14.3792 10.1283 14.1909 10.1283 13.9995C10.1283 13.8071 10.1425 13.6179 10.1702 13.4331L9.63021 13.0532C9.20982 12.772 9.08144 12.2171 9.33528 11.7827L9.72396 11.1167C9.97785 10.6822 10.529 10.5156 10.9857 10.7349L11.5892 11.0073C11.8873 10.7726 12.221 10.5802 12.5814 10.4399L12.6449 9.7876C12.6812 9.28738 13.103 8.8999 13.6107 8.8999H14.389Z"/>
</mask>
<path d="M15.3548 9.7876L14.3574 9.86011L14.3583 9.87155L14.3594 9.88297L15.3548 9.7876ZM15.4173 10.4399L14.4219 10.5353L14.4806 11.1486L15.0548 11.3719L15.4173 10.4399ZM16.4095 11.0073L15.791 11.7931L16.2676 12.1682L16.8204 11.919L16.4095 11.0073ZM17.014 10.7349L17.4249 11.6465L17.4359 11.6416L17.4468 11.6364L17.014 10.7349ZM18.2757 11.1167L19.1394 10.6127L19.1391 10.6122L18.2757 11.1167ZM18.6644 11.7827L17.8007 12.2867L17.801 12.2872L18.6644 11.7827ZM18.3685 13.0532L17.8127 12.2219L17.8033 12.2282L17.7941 12.2346L18.3685 13.0532ZM17.8284 13.4321L17.2541 12.6135L16.7474 12.969L16.8396 13.581L17.8284 13.4321ZM17.8714 13.9995H18.8714V13.9995L17.8714 13.9995ZM17.8284 14.563L16.8394 14.4152L16.747 15.0341L17.2631 15.3878L17.8284 14.563ZM18.3841 14.9438L18.9499 14.1193L18.9495 14.119L18.3841 14.9438ZM18.6702 16.2075L19.5334 16.7124L19.5338 16.7118L18.6702 16.2075ZM18.2699 16.8921L17.4067 16.3872L17.4065 16.3875L18.2699 16.8921ZM17.0189 17.2788L16.5962 18.1851L16.5967 18.1853L17.0189 17.2788ZM16.4075 16.9937L16.8303 16.0874L16.273 15.8275L15.7896 16.2075L16.4075 16.9937ZM15.4202 17.5571L15.0569 16.6255L14.4757 16.8522L14.4237 17.4738L15.4202 17.5571ZM15.3646 18.2231L16.361 18.3072L16.3611 18.3064L15.3646 18.2231ZM14.3997 19.1001V20.1001H14.3998L14.3997 19.1001ZM13.5999 19.1001V20.1001V20.1001V19.1001ZM12.6351 18.2231L13.6315 18.139L13.6315 18.1384L12.6351 18.2231ZM12.5784 17.5571L13.5749 17.4724L13.5221 16.852L12.9421 16.6256L12.5784 17.5571ZM11.5911 16.9937L12.2093 16.2076L11.7258 15.8274L11.1684 16.0874L11.5911 16.9937ZM10.9798 17.2788L11.4017 18.1855L11.4025 18.1851L10.9798 17.2788ZM9.72982 16.8921L10.5931 16.3874L10.593 16.3872L9.72982 16.8921ZM9.32942 16.2075L8.46592 16.7119L8.46623 16.7124L9.32942 16.2075ZM9.61556 14.9438L10.1812 15.7685L10.1816 15.7682L9.61556 14.9438ZM10.1702 14.563L10.7363 15.3874L11.2516 15.0335L11.1593 14.4153L10.1702 14.563ZM10.1283 13.9995L9.12825 13.9995V13.9995H10.1283ZM10.1702 13.4331L11.1591 13.5817L11.251 12.9707L10.7456 12.6152L10.1702 13.4331ZM9.63021 13.0532L10.2056 12.2353L10.1959 12.2286L10.1862 12.222L9.63021 13.0532ZM9.33528 11.7827L10.1987 12.2872L10.199 12.2867L9.33528 11.7827ZM9.72396 11.1167L8.86058 10.6121L8.86027 10.6127L9.72396 11.1167ZM10.9857 10.7349L10.5529 11.6364L10.5635 11.6415L10.5742 11.6463L10.9857 10.7349ZM11.5892 11.0073L11.1777 11.9187L11.731 12.1685L12.2079 11.793L11.5892 11.0073ZM12.5814 10.4399L12.9442 11.3718L13.5171 11.1487L13.5767 10.5368L12.5814 10.4399ZM12.6449 9.7876L13.6402 9.88445L13.6413 9.8723L13.6422 9.86013L12.6449 9.7876ZM14.389 8.8999V9.8999C14.3846 9.8999 14.3774 9.89744 14.372 9.89248C14.3694 9.89006 14.366 9.88614 14.363 9.88007C14.3598 9.87345 14.3579 9.86616 14.3574 9.86011L15.3548 9.7876L16.3522 9.71509C16.277 8.68137 15.41 7.8999 14.389 7.8999V8.8999ZM15.3548 9.7876L14.3594 9.88297L14.4219 10.5353L15.4173 10.4399L16.4128 10.3446L16.3503 9.69223L15.3548 9.7876ZM15.4173 10.4399L15.0548 11.3719C15.3212 11.4756 15.5688 11.6182 15.791 11.7931L16.4095 11.0073L17.028 10.2215C16.6538 9.92704 16.2343 9.68476 15.7798 9.50796L15.4173 10.4399ZM16.4095 11.0073L16.8204 11.919L17.4249 11.6465L17.014 10.7349L16.6031 9.82319L15.9986 10.0957L16.4095 11.0073ZM17.014 10.7349L17.4468 11.6364C17.4449 11.6372 17.4417 11.6382 17.4382 11.6385C17.4353 11.6387 17.4331 11.6383 17.4313 11.6378C17.4296 11.6373 17.4266 11.636 17.4229 11.6331C17.4186 11.6298 17.4148 11.6254 17.4123 11.6212L18.2757 11.1167L19.1391 10.6122C18.6193 9.7227 17.5018 9.3914 16.5812 9.83336L17.014 10.7349ZM18.2757 11.1167L17.412 11.6207L17.8007 12.2867L18.6644 11.7827L19.5281 11.2787L19.1394 10.6127L18.2757 11.1167ZM18.6644 11.7827L17.801 12.2872C17.7858 12.2612 17.7974 12.2321 17.8127 12.2219L18.3685 13.0532L18.9243 13.8845C19.7806 13.312 20.0508 12.1732 19.5278 11.2782L18.6644 11.7827ZM18.3685 13.0532L17.7941 12.2346L17.2541 12.6135L17.8284 13.4321L18.4028 14.2507L18.9428 13.8718L18.3685 13.0532ZM17.8284 13.4321L16.8396 13.581C16.8604 13.7193 16.8714 13.8589 16.8714 13.9996L17.8714 13.9995L18.8714 13.9995C18.8714 13.7544 18.8522 13.5153 18.8173 13.2832L17.8284 13.4321ZM17.8714 13.9995H16.8714C16.8714 14.1369 16.8603 14.2756 16.8394 14.4152L17.8284 14.563L18.8175 14.7108C18.8516 14.4827 18.8714 14.2449 18.8714 13.9995H17.8714ZM17.8284 14.563L17.2631 15.3878L17.8188 15.7687L18.3841 14.9438L18.9495 14.119L18.3938 13.7381L17.8284 14.563ZM18.3841 14.9438L17.8183 15.7684C17.8027 15.7577 17.7919 15.7286 17.8067 15.7033L18.6702 16.2075L19.5338 16.7118C20.0515 15.8252 19.792 14.6971 18.9499 14.1193L18.3841 14.9438ZM18.6702 16.2075L17.807 15.7027L17.4067 16.3872L18.2699 16.8921L19.1331 17.397L19.5334 16.7124L18.6702 16.2075ZM18.2699 16.8921L17.4065 16.3875C17.4089 16.3834 17.4127 16.379 17.4168 16.3758C17.4205 16.3729 17.4235 16.3716 17.4254 16.371C17.4273 16.3705 17.4295 16.3701 17.4325 16.3703C17.436 16.3705 17.4392 16.3714 17.441 16.3723L17.0189 17.2788L16.5967 18.1853C17.5147 18.6128 18.618 18.2781 19.1332 17.3967L18.2699 16.8921ZM17.0189 17.2788L17.4416 16.3726L16.8303 16.0874L16.4075 16.9937L15.9848 17.8999L16.5962 18.1851L17.0189 17.2788ZM16.4075 16.9937L15.7896 16.2075C15.57 16.3801 15.3236 16.5214 15.0569 16.6255L15.4202 17.5571L15.7836 18.4888C16.2337 18.3132 16.6516 18.0738 17.0255 17.7798L16.4075 16.9937ZM15.4202 17.5571L14.4237 17.4738L14.3681 18.1399L15.3646 18.2231L16.3611 18.3064L16.4168 17.6404L15.4202 17.5571ZM15.3646 18.2231L14.3681 18.139C14.3686 18.133 14.3706 18.1259 14.3738 18.1195C14.3768 18.1136 14.3801 18.1097 14.3827 18.1074C14.388 18.1026 14.3951 18.1001 14.3996 18.1001L14.3997 19.1001L14.3998 20.1001C15.4124 20.1 16.2747 19.3308 16.361 18.3072L15.3646 18.2231ZM14.3997 19.1001V18.1001H13.5999V19.1001V20.1001H14.3997V19.1001ZM13.5999 19.1001V18.1001C13.6045 18.1001 13.6117 18.1026 13.617 18.1074C13.6196 18.1098 13.6229 18.1136 13.6259 18.1195C13.6291 18.1259 13.631 18.1331 13.6315 18.139L12.6351 18.2231L11.6386 18.3073C11.725 19.3308 12.5871 20.1001 13.5999 20.1001V19.1001ZM12.6351 18.2231L13.6315 18.1384L13.5749 17.4724L12.5784 17.5571L11.582 17.6419L11.6387 18.3079L12.6351 18.2231ZM12.5784 17.5571L12.9421 16.6256C12.6749 16.5213 12.4284 16.3799 12.2093 16.2076L11.5911 16.9937L10.973 17.7797C11.3472 18.074 11.7654 18.3132 12.2148 18.4887L12.5784 17.5571ZM11.5911 16.9937L11.1684 16.0874L10.5571 16.3726L10.9798 17.2788L11.4025 18.1851L12.0139 17.8999L11.5911 16.9937ZM10.9798 17.2788L10.5579 16.3722C10.5597 16.3714 10.5629 16.3704 10.5665 16.3702C10.5696 16.37 10.572 16.3704 10.5741 16.371C10.5761 16.3716 10.5792 16.3729 10.5829 16.3759C10.5871 16.3791 10.5908 16.3834 10.5931 16.3874L9.72982 16.8921L8.86653 17.3968C9.38148 18.2776 10.4836 18.6127 11.4017 18.1855L10.9798 17.2788ZM9.72982 16.8921L10.593 16.3872L10.1926 15.7027L9.32942 16.2075L8.46623 16.7124L8.86662 17.397L9.72982 16.8921ZM9.32942 16.2075L10.1929 15.7032C10.1953 15.7072 10.1979 15.7138 10.1991 15.7217C10.2002 15.729 10.1998 15.7356 10.1985 15.7413C10.1957 15.7534 10.1881 15.7638 10.1812 15.7685L9.61556 14.9438L9.04991 14.1192C8.20747 14.697 7.9481 15.8253 8.46592 16.7119L9.32942 16.2075ZM9.61556 14.9438L10.1816 15.7682L10.7363 15.3874L10.1702 14.563L9.60421 13.7386L9.04952 14.1195L9.61556 14.9438ZM10.1702 14.563L11.1593 14.4153C11.1389 14.2791 11.1283 14.1402 11.1283 13.9995H10.1283H9.12825C9.12825 14.2415 9.14664 14.4792 9.18122 14.7107L10.1702 14.563ZM10.1283 13.9995L11.1283 13.9996C11.1283 13.8564 11.1388 13.7169 11.1591 13.5817L10.1702 13.4331L9.18135 13.2845C9.14612 13.5189 9.12827 13.7578 9.12825 13.9995L10.1283 13.9995ZM10.1702 13.4331L10.7456 12.6152L10.2056 12.2353L9.63021 13.0532L9.05486 13.8711L9.5949 14.251L10.1702 13.4331ZM9.63021 13.0532L10.1862 12.222C10.2027 12.2331 10.2131 12.2625 10.1987 12.2872L9.33528 11.7827L8.47189 11.2782C7.94976 12.1717 8.21689 13.3109 9.07422 13.8844L9.63021 13.0532ZM9.33528 11.7827L10.199 12.2867L10.5876 11.6207L9.72396 11.1167L8.86027 10.6127L8.4716 11.2787L9.33528 11.7827ZM9.72396 11.1167L10.5873 11.6213C10.5849 11.6255 10.581 11.6299 10.5768 11.6331C10.573 11.6361 10.5701 11.6373 10.5683 11.6378C10.5666 11.6383 10.5644 11.6387 10.5615 11.6385C10.558 11.6382 10.5547 11.6372 10.5529 11.6364L10.9857 10.7349L11.4185 9.83336C10.4978 9.39139 9.38034 9.72275 8.86058 10.6121L9.72396 11.1167ZM10.9857 10.7349L10.5742 11.6463L11.1777 11.9187L11.5892 11.0073L12.0007 10.0959L11.3971 9.82344L10.9857 10.7349ZM11.5892 11.0073L12.2079 11.793C12.4296 11.6184 12.6773 11.4757 12.9442 11.3718L12.5814 10.4399L12.2186 9.50808C11.7647 9.68477 11.345 9.92679 10.9705 10.2217L11.5892 11.0073ZM12.5814 10.4399L13.5767 10.5368L13.6402 9.88445L12.6449 9.7876L11.6496 9.69075L11.5861 10.3431L12.5814 10.4399ZM12.6449 9.7876L13.6422 9.86013C13.6418 9.86618 13.6399 9.87347 13.6366 9.88008C13.6336 9.88614 13.6303 9.89007 13.6277 9.89248C13.6223 9.89743 13.6151 9.8999 13.6107 9.8999V8.8999V7.8999C12.5897 7.8999 11.7227 8.68139 11.6475 9.71507L12.6449 9.7876ZM13.6107 8.8999V9.8999H14.389V8.8999V7.8999H13.6107V8.8999Z" fill="currentColor" mask="url(#path-3-inside-1_1096_75549)"/>
<circle cx="14.0003" cy="13.9997" r="1.3" stroke="currentColor"/>
</svg>

<svg xmlns="http://www.w3.org/2000/svg" width="20" height="20" fill="none" viewBox="0 0 20 20"><path stroke="currentColor" stroke-linecap="round" d="M5.1 1.5h-.6a3 3 0 0 0-3 3v.6m11.4-3.6h.6a3 3 0 0 1 3 3v.6M5.1 17.5h-.6a3 3 0 0 1-3-3v-.6"/><path stroke="currentColor" stroke-linecap="round" stroke-linejoin="round" d="M12.5 6v1.5m-4-.5v3h1m-5-4v1.5m1.929 5q1.875.73 3.75.395"/><mask id="a" fill="#fff"><path fill-rule="evenodd" d="M14.389 8.9c.508 0 .93.387.966.888l.062.652c.36.14.694.333.993.567l.604-.272a.975.975 0 0 1 1.262.382l.388.666a.95.95 0 0 1-.296 1.27l-.54.38a3.8 3.8 0 0 1 0 1.13l.556.38a.95.95 0 0 1 .286 1.265l-.4.684a.974.974 0 0 1-1.251.387l-.611-.285a3.9 3.9 0 0 1-.988.563l-.055.666a.964.964 0 0 1-.965.877h-.8a.964.964 0 0 1-.965-.877l-.057-.666c-.358-.14-.69-.33-.987-.563l-.611.285a.973.973 0 0 1-1.25-.387l-.4-.684a.95.95 0 0 1 .286-1.264l.554-.381a3.8 3.8 0 0 1 0-1.13l-.54-.38a.95.95 0 0 1-.295-1.27l.389-.666a.975.975 0 0 1 1.262-.382l.603.272a3.9 3.9 0 0 1 .992-.567l.064-.652a.963.963 0 0 1 .966-.888z" clip-rule="evenodd"/></mask><path fill="currentColor" d="m15.355 9.788-.998.072.001.012.001.011zm.062.652-.995.095.059.614.574.223zm.993.567-.619.786.477.375.552-.249zm.604-.272.41.912.012-.005.01-.006zm1.262.382.863-.504zm.388.666-.863.504zm-.296 1.27-.555-.831-.01.006-.009.007zm-.54.38-.574-.82-.507.356.093.612zm.043.566h1zm-.043.564-.989-.148-.092.62.516.353zm.556.38.566-.824zm.286 1.265.863.504zm-.4.684-.863-.505zm-1.251.387-.423.906zm-.611-.285.422-.907-.557-.26-.483.38zm-.988.563-.363-.931-.581.226-.052.622zm-.055.666.996.084zm-.965.877v1zm-.8 0v1zm-.965-.877.997-.084zm-.057-.666.997-.085-.053-.62-.58-.226zm-.987-.563.618-.786-.483-.38-.558.26zm-.611.285.422.907zm-1.25-.387.863-.505zm-.4-.684-.864.504zm.286-1.264.565.824zm.554-.381.566.824.516-.354-.093-.618zm-.042-.564h-1zm.042-.566.99.149.091-.611-.505-.356zm-.54-.38.576-.818-.01-.006-.01-.007zm-.295-1.27.864.504zm.389-.666-.863-.505zm1.262-.382-.433.901.01.006.011.004zm.603.272-.411.912.553.25.477-.376zm.992-.567.363.932.573-.223.06-.612zm.064-.652.995.096.001-.012.001-.012zm1.744-.888v1a.03.03 0 0 1-.017-.008l-.009-.012-.006-.02.998-.072.997-.073A1.964 1.964 0 0 0 14.39 7.9zm.966.888-.996.095.063.652.995-.095.996-.095-.063-.653zm.062.652-.362.932q.401.157.736.421l.619-.786.618-.785a4.9 4.9 0 0 0-1.248-.714zm.993.567.41.912.605-.273-.411-.911-.41-.912-.605.273zm.604-.272.433.901-.009.003-.007-.001-.008-.005-.01-.012.863-.504.863-.505a1.975 1.975 0 0 0-2.558-.779zm1.262.382-.864.504.389.666.863-.504.864-.504-.389-.666zm.388.666-.863.504c-.015-.026-.004-.055.012-.065l.556.831.555.831a1.95 1.95 0 0 0 .604-2.606zm-.296 1.27-.574-.818-.54.379.574.818.575.819.54-.38zm-.54.38-.988.148q.03.207.031.419h2q0-.369-.054-.717zm.043.566h-1q0 .207-.032.416l.99.148.988.148a5 5 0 0 0 .054-.712zm-.043.564-.565.825.556.38.565-.824.566-.825-.556-.38zm.556.38-.566.825c-.015-.01-.026-.04-.011-.065l.863.505.864.504a1.95 1.95 0 0 0-.584-2.593zm.286 1.265-.863-.505-.4.684.863.505.863.505.4-.685zm-.4.684-.863-.505.01-.011.008-.005h.008l.008.001-.422.907-.422.906a1.974 1.974 0 0 0 2.536-.788zm-1.251.387.423-.906-.612-.286-.422.907-.423.906.611.285zm-.611-.285-.618-.787q-.331.26-.733.418l.363.932.364.932c.45-.176.868-.415 1.242-.71zm-.988.563-.996-.083-.056.666.997.083.996.083.056-.666zm-.055.666-.997-.084q0-.01.006-.02l.009-.012a.03.03 0 0 1 .017-.007v2c1.012 0 1.875-.77 1.961-1.793zm-.965.877v-1h-.8v2h.8zm-.8 0v-1q.009 0 .017.007l.009.012.006.02-.997.084-.996.084a1.964 1.964 0 0 0 1.96 1.793zm-.965-.877.997-.085-.057-.666-.997.085-.996.085.057.666zm-.057-.666.364-.931a2.9 2.9 0 0 1-.733-.418l-.618.786-.618.786c.374.294.792.533 1.242.709zm-.987-.563-.423-.907-.61.286.422.906.422.906.612-.285zm-.611.285-.422-.907a.03.03 0 0 1 .016-.001l.009.005.01.011-.863.505-.863.505a1.973 1.973 0 0 0 2.535.789zm-1.25-.387.863-.505-.4-.684-.864.505-.863.504.4.685zm-.4-.684.863-.505q.004.006.006.019v.02a.05.05 0 0 1-.018.026l-.565-.824-.566-.825a1.95 1.95 0 0 0-.584 2.593zm.286-1.264.566.824.554-.38-.566-.825-.566-.824-.554.38zm.554-.381.99-.148a3 3 0 0 1-.032-.415h-2q.001.364.053.71zm-.042-.564h1q0-.215.031-.417l-.989-.149-.989-.149a5 5 0 0 0-.053.715zm.042-.566.576-.818-.54-.38-.576.818-.575.818.54.38zm-.54-.38.556-.831c.017.011.027.04.013.065l-.864-.504-.863-.505a1.95 1.95 0 0 0 .602 2.606zm-.295-1.27.864.504.389-.666-.864-.504-.864-.504-.388.666zm.389-.666.863.504-.01.012-.009.005h-.006l-.01-.002.434-.901.432-.902a1.975 1.975 0 0 0-2.557.78zm1.262-.382-.412.911.604.273.411-.912.412-.911-.604-.273zm.603.272.619.786c.222-.175.47-.317.736-.421l-.363-.932-.362-.932a4.9 4.9 0 0 0-1.248.714zm.992-.567.996.097.063-.653-.995-.096-.995-.097-.064.652zm.064-.652.997.072a.06.06 0 0 1-.014.032.03.03 0 0 1-.017.008v-2a1.964 1.964 0 0 0-1.963 1.815zm.966-.888v1h.778v-2h-.778z" mask="url(#a)"/><circle cx="14" cy="14" r="1.3" stroke="currentColor"/></svg>
